packages/core/src/svgs/tokens/branded/OXB.svg

<svg width="24" height="24" viewBox="0 0 24 24" fill="none" xmlns="http://www.w3.org/2000/svg">
<path d="M3.50002 9.99986H6.00004C6.26526 9.99986 6.51962 10.1052 6.70715 10.2928C6.89469 10.4803 7.00006 10.7346 7.00006 10.9999V11.4999C7.00006 11.5662 7.02639 11.6298 7.07328 11.6767C7.12015 11.7235 7.18375 11.7499 7.25005 11.7499C7.31635 11.7499 7.37995 11.7235 7.42683 11.6767C7.47372 11.6298 7.50006 11.5662 7.50006 11.4999V10.9999C7.50006 10.6021 7.34202 10.2205 7.06071 9.93919C6.7794 9.65792 6.39786 9.49988 6.00004 9.49988H3.50002C3.10218 9.49988 2.72066 9.65792 2.43935 9.93919C2.15804 10.2205 2 10.6021 2 10.9999V11.4999C2 11.5662 2.02634 11.6298 2.07322 11.6767C2.12011 11.7235 2.18369 11.7499 2.25001 11.7499C2.31631 11.7499 2.37989 11.7235 2.42678 11.6767C2.47367 11.6298 2.5 11.5662 2.5 11.4999V10.9999C2.5 10.4498 2.95001 9.99986 3.50002 9.99986ZM2.5 12.4999C2.5 12.4335 2.47367 12.37 2.42678 12.3232C2.37989 12.2763 2.31631 12.2499 2.25001 12.2499C2.18369 12.2499 2.12011 12.2763 2.07322 12.3232C2.02634 12.37 2 12.4335 2 12.4999V13C2 13.3977 2.15804 13.7793 2.43935 14.0606C2.72066 14.3419 3.10218 14.5 3.50002 14.5H6.00004C6.39786 14.5 6.7794 14.3419 7.06071 14.0606C7.34202 13.7793 7.50006 13.3977 7.50006 13V12.4999C7.50006 12.4335 7.47372 12.37 7.42683 12.3232C7.37995 12.2763 7.31635 12.2499 7.25005 12.2499C7.18375 12.2499 7.12015 12.2763 7.07328 12.3232C7.02639 12.37 7.00006 12.4335 7.00006 12.4999V13C7.00006 13.2652 6.89469 13.5195 6.70715 13.707C6.51962 13.8946 6.26526 13.9999 6.00004 13.9999H3.50002C3.2348 13.9999 2.98044 13.8946 2.7929 13.707C2.60537 13.5195 2.5 13.2652 2.5 13V12.4999ZM9.06506 9.58488C9.10913 9.53631 9.17051 9.50699 9.23598 9.50325C9.30145 9.4995 9.36576 9.52165 9.41507 9.56487L11.9151 11.8149C11.9409 11.8383 11.9614 11.8669 11.9756 11.8987C11.9897 11.9306 11.9969 11.965 11.9969 11.9999C11.9969 12.0348 11.9897 12.0692 11.9756 12.101C11.9614 12.1329 11.9409 12.1615 11.9151 12.1849L9.41507 14.435C9.36492 14.4692 9.30406 14.4839 9.24381 14.4765C9.18358 14.4691 9.12808 14.44 9.08768 14.3947C9.04729 14.3495 9.02474 14.291 9.02427 14.2304C9.02378 14.1697 9.04539 14.1109 9.08507 14.0649L11.3751 11.9999L9.08507 9.93487C9.0365 9.89077 9.00719 9.82941 9.00344 9.76396C8.9997 9.6985 9.02183 9.63419 9.06506 9.58488Z" fill="white"/>
<path d="M14.9402 9.59001C15.0303 9.70004 15.0203 9.87002 14.9203 9.96499L12.8203 12L12.5002 11.6001L14.6003 9.565C14.7002 9.46501 14.8503 9.48001 14.9402 9.59001ZM14.9402 14.41C14.9829 14.3558 15.0044 14.2878 15.0008 14.2188C14.9971 14.1499 14.9685 14.0845 14.9203 14.0351L12.8203 12L12.5002 12.4001L14.6003 14.4351C14.7002 14.5351 14.8503 14.52 14.9402 14.41Z" fill="#27E9AF"/>
<path d="M16.5 9.74984C16.5 9.60988 16.61 9.49988 16.75 9.49988H20.5001C21.535 9.49988 22.0001 9.96486 22.0001 10.9999C22.0001 11.46 21.775 11.7849 21.4751 11.9899C21.775 12.1899 22.0001 12.5249 22.0001 13C22.0001 13.8799 21.38 14.5 20.5001 14.5H16.75C16.6836 14.5 16.6201 14.4736 16.5732 14.4267C16.5264 14.3798 16.5 14.3162 16.5 14.25C16.5 14.1836 16.5264 14.12 16.5732 14.0732C16.6201 14.0263 16.6836 13.9999 16.75 13.9999H20.5001C21.105 13.9999 21.5 13.6049 21.5 13C21.5 12.5499 21.15 12.2899 20.735 12.2499H16.75C16.6836 12.2499 16.6201 12.2235 16.5732 12.1766C16.5264 12.1297 16.5 12.0662 16.5 11.9999C16.5 11.9336 16.5264 11.87 16.5732 11.8231C16.6201 11.7762 16.6836 11.7499 16.75 11.7499H20.49C20.5651 11.7449 20.6401 11.74 20.725 11.7499C21.1251 11.6999 21.5 11.4349 21.5 10.9999C21.5 10.2299 21.2701 9.99986 20.5001 9.99986H16.75C16.6836 9.99986 16.6201 9.97349 16.5732 9.92671C16.5264 9.87981 16.5 9.81622 16.5 9.74984Z" fill="white"/>
</svg>

<svg xmlns="http://www.w3.org/2000/svg" width="24" height="24" fill="none" viewBox="0 0 24 24">
    <path fill="#fff" d="M3.5 10H6a1 1 0 0 1 1 1v.5a.25.25 0 1 0 .5 0V11A1.5 1.5 0 0 0 6 9.5H3.5A1.5 1.5 0 0 0 2 11v.5a.25.25 0 0 0 .5 0V11c0-.55.45-1 1-1m-1 2.5a.25.25 0 1 0-.5 0v.5a1.5 1.5 0 0 0 1.5 1.5H6A1.5 1.5 0 0 0 7.5 13v-.5a.25.25 0 1 0-.5 0v.5a1 1 0 0 1-1 1H3.5a1 1 0 0 1-1-1zm6.565-2.915a.25.25 0 0 1 .35-.02l2.5 2.25a.25.25 0 0 1 .06.286.3.3 0 0 1-.06.084l-2.5 2.25a.25.25 0 0 1-.33-.37L11.375 12l-2.29-2.065a.25.25 0 0 1-.02-.35"/>
    <path fill="#27E9AF" d="M14.94 9.59c.09.11.08.28-.02.375L12.82 12l-.32-.4 2.1-2.035c.1-.1.25-.085.34.025m0 4.82a.285.285 0 0 0-.02-.375L12.82 12l-.32.4 2.1 2.035c.1.1.25.085.34-.025"/>
    <path fill="#fff" d="M16.5 9.75c0-.14.11-.25.25-.25h3.75c1.035 0 1.5.465 1.5 1.5 0 .46-.225.785-.525.99.3.2.525.535.525 1.01 0 .88-.62 1.5-1.5 1.5h-3.75a.25.25 0 0 1 0-.5h3.75c.605 0 1-.395 1-1 0-.45-.35-.71-.765-.75H16.75a.25.25 0 0 1 0-.5h3.74c.075-.005.15-.01.235 0 .4-.05.775-.315.775-.75 0-.77-.23-1-1-1h-3.75a.25.25 0 0 1-.25-.25"/>
</svg>
